X: 10463
T: IRISH PIPES
C:
%R: reel
B: Elias Howe "The Musician's Companion" Part 1 1842 p.46 #3
S: http://imslp.org/wiki/The_Musician's_Companion_(Howe,_Elias)
Z: 2015 John Chambers <jc:trillian.mit.edu>
M: C
L: 1/8
K: D
% - - - - - - - - - - - - - - - - - - - - - - - - -
g |\
fdec dAAB | dAAF GEEg | fdec dAAB | dAAG FDD :: D |\
FDFD GEGE | FDFD EEE2 | FDFD FAAc | dAAG FDD :|
% - - - - - - - - - - - - - - - - - - - - - - - - -


